X:1
T:Minuet
T:Minuet
T:Henry Purcell
C:Henry Purcell
%%score 1 2 3
L:1/8
M:3/4
K:C
V:1 treble 
V:2 bass 
V:3 bass 
V:1
 A^GAB A2 | B2 B2 E2 | A2 ^G2 A2 | B4 B2 | cBcd c2 | B2 B2 E2 | A2 B2 ^G2 |{A^G} A4 e2 | %8
{de} d2 cB e2 |{cd} c2 BA B2 | c2 d3 c/d/ | e6 | A^GAB A2 | B2 B2 E2 | A2 ^G2 A2 | B4 B2 | %16
 cBcd c2 | B2 B2 E2 | A2 B2 ^G2 |{A^G} A6 |] %20
V:2
 C6 | B,6 | A,6 | ^G,6 | z2 =G,2 C2 | z2 D4 | C2 z2 B,2 | A,4 C2 | B,4 B,2 | A,4 =G,2 | z2 A,4 | %11
 ^G,6 | C6 | B,6 | A,6 | ^G,6 | z2 =G,2 C2 | z2 D4 | C2 z2 B,2 | A,6 |] %20
V:3
 A,6 | =G,6 | F,6 | E,6 | C,6 | G,4 A,2- | A,2 E,4 | z2 A,,2 A,2 | A,4 ^G,2 | z2 A,,2 =G,2 | F,6 | %11
 E,6 | A,6 | =G,6 | F,6 | E,6 | C,6 | G,4 A,2- | A,2 E,4 | z2 A,,4 |] %20

